X:1
T:James Gibb editions
T:Magnus Dominus - Lotti
T:#
%%score [ 1 2 3 4 ]
L:1/8
Q:1/4=96
M:2/2
K:C
V:1 treble nm="Soprano" snm="S"
V:2 treble nm="Alto" snm="A"
V:3 treble-8 nm="Tenor" snm="T"
V:4 bass nm="Bass" snm="B"
V:1
"^Magnus Dominus""^Antonio Lotti\n(1667-1740)""^Psalm 47: 2,15 (Vulgate)" z8 | z8 | z8 | G4 A4 | %4
w: |||Ma- gnus|
 B3 c d4 | c2 A2 B4 | c2 B2 A4 | G8 | z8 | c2 A2 (B2 AG | A2) c4 c2 | d8 | G8 | z2 c4 BA | %14
w: Do- mi- nus|et lau- da-|bi- lis ni-|mis,||et lau- da\- * *|* bi- lis|ni-|mis,|In ci- vi-|
 G2 E2 A2 B2 | c8 | B2 G2 (dcBA | G6) G2 | G3 G A4 | B2 B4 B2 | B2 B4 c2 | (A8 | G8) | G8 | %24
w: ta- te De- i|no-|stri, in mon\- * * *|* te|san- cto e-|jus. Quo- ni-|am hic est|De\-||us|
 z2 c4 c2 | B2 BA B2 G2 | A8 | z8 | z2 d4 d2 | c2 cB c2 A2 | B4 z4 | z8 | z2 E4 F2 | G2 A_B G3 G || %34
w: et in|sae- cu- lum sae- cu-|li,||et in|sae- cu- lum sae- cu-|li,||et in|sae- cu- lum sae- cu-|
[M:3/2][Q:1/4=192] A12 | z12 | z12 | z12 | z4 G4 A4 | B8 B4 | c8 B4 | A6 A2 A4 | z4 c4 c4 | %43
w: li:||||i- pse|re- get|nos in|sae- cu- la,|i- pse|
[M:3/2][Q:1/4=192][Q:1/4=192][Q:1/4=192][Q:1/4=192] c8 B4 | c12 | z4 G4 G4 | A8 F4 | E8 E4 | %48
w: re- get|nos,|i- pse|re- get|nos in|
 F6 F2 F4 | z12 | z4 z4 G4 | A8 G4 ||[M:2/2] x8 | %53
w: sae- cu- la,||in|sae- cu-||
[M:2/2][Q:1/4=96][Q:1/4=96][Q:1/4=96][Q:1/4=96] G2 c4 B2 | A6 B2 | c4 c4 | %56
w: la, i- pse|re- get|nos in|
[Q:1/4=95] (A4[Q:1/4=92] G4[Q:1/4=94][Q:1/4=93][Q:1/4=91] | A4)[Q:1/4=87] A4[Q:1/4=89][Q:1/4=88] | %58
w: sae\- *|* cu-|
[Q:1/4=85] G16[Q:1/4=84][Q:1/4=84][Q:1/4=84] |] %59
w: la.|
V:2
 z8 | z8 | z4 C4 | D4 E3 F | G2 G4 F2 | (E2 A4) G2 | G6 ^F2 | G8 | z2 G2 D4 | E3 F G4 | (FG A4 G2 | %11
w: ||Ma-|gnus Do- mi-|nus et lau-|da\- * bi-|lis ni-|mis,|et lau-|da- bi- lis|ni\- * * *|
 F8) | E4 G4- | G4 A2 G2 | E3 E ^F2 G2 | (G4 ^F4) | G6 D2 | E6 E2 | E2 G2 (G2 ^F2) | G2 G4 G2 | %20
w: |mis, In|* ci- vi-|ta- te De- i|no\- *|stri, in|mon- te|san- cto e\- *|jus. Quo- ni-|
 G2 G4 G2 | F8 | E8 | z4 z2 G2- | G2 G2 G3 ^F | G2 =FE D2 E2 | F8 | z8 | z2 G4 G2 | E2 ^FG A3 A | %30
w: am hic est|De-|us|et|* in sae- cu-|lum, et in sae- cu-|li,||et in|sae- cu- lum sae- cu-|
 D4 z4 | z8 | z2 C4 D2 | E2 FF F2 E2 ||[M:3/2] F12 | z4 E4 E4 | F8 E4 | D8 D4 | E6 E2 E4 | %39
w: li,||et in|sae- cu- lum sae- cu-|li:|i- pse|re- get|nos in|sae- cu- la,|
 z4 A4 ^G4 | A8 =G4 | G8 ^F4 | G6 G2 G4 |[M:3/2] z4 D4 D4 | E8 F4 | F8 E4 | F6 F2 F4 | z4 D4 ^C4 | %48
w: í- pse|re- get|nos in|sae- cu- la,|i- pse|re- get|nos in|sae- cu- la,|i- pse|
 D8 D4 | E8 E4 | F6 G2 E2 E2 | D8 D4 ||[M:2/2] x8 |[M:2/2] E2 G4 G2 | E4 E4 | A6 G2 | %56
w: re- get|nos in|sae- cu- la, in|sae- cu-||la, i- pse|re- get|nos in|
 (A2 GF E2 G2- | G2 FE F4- | F2) (ED) E12 |] %59
w: sae\- * * * *||* cu\- * la.|
V:3
 c4 d4 | e3 f g4 | f2 d2 e4 | d2 d2 c4 | d4 z4 | z8 | c4 d4 | (e3 f g4- | g2 fe d3) d | c4 d2 c2 | %10
w: Ma- gnus|Do- mi- nus|et lau- da-|bi- lis ni-|mis,||ma- gnus|Do\- * *|* * * * mi-|nus et lau-|
 c3 B A2 (c2- | c2 BA B4) | c2 e4 dc | d2 e2 c2 d2 | (e4 d4 | c8) | d6 G2 | (gfed c3) B | %18
w: da- bi- lis ni\-||mis, In ci- vi-|ta- te De- i|no\- *||stri, in|mon\- * * * * te|
 c2 B2 d4 | G2 d4 d2 | d2 d4 c2 | c8 | c2 e4 e2 | d3 c d2 B2 | c8 | d8 | z2 d4 d2 | e3 d e2 c2 | %28
w: san- cto e-|jus. Quo- ni-|am hic est|De-|us, De- us|no- ster in ae-|ter-|num,|De- us|no- ster in ae-|
 (d3 e/f/ g4- | g4 ^f4) | g2 B4 c2 | d2 ef d3 d | e4 z4 | z8 ||[M:3/2][K:treble-8] z4 c4 d4 | %35
w: ter\- * * *||num, et in|sae- cu- lum sae- cu-|li:||i- pse|
 d8 c4 | d8 c4 | c6 c2 B4 | z4 c4 c4 | d8 e4 | A8 B4 | c8 d4 | G12 |[M:3/2][K:treble-8] z12 | %44
w: re- get|nos in|sae- cu- la,|i- pse|re- get|nos in|sae- cu-|la,||
 z4 A4 A4 | _B8 c4 | F12 | z12 | z4 z4 d4 | d8 ^c4 | d8 =c4 | c8 B4 ||[M:2/2] x8 | %53
w: i- pse|re- get|nos||in|sae- cu-|la, in|sae- cu-||
[M:2/2][K:treble-8] c2 e4 d2 | c6 B2 | A4 c4 | c8- | c6 c2 | c16 |] %59
w: la, i- pse|re- get|nos in|sae\-|* cu-|la.|
V:4
 z2 C4 B,2 | A,3 A, G,4 | A,2 B,2 C2 C2- | C2 B,2 A,4 | G,4 z4 | z8 | z8 | z4 G,4 | A,4 B,3 B, | %9
w: Ma- gnus|Do- mi- nus|et lau- da- bi\-|* lis ni-|mis,|||ma-|gnus Do- mi-|
 C4 G,2 E,2 | F,4 F,2 E,2 | D,8 | C,2 C4 B,A, | G,2 E,2 A,2 B,2 | (C6 B,2 | A,8) | G,8 | z8 | z8 | %19
w: nus et lau-|da- bi- lis|ni-|mis, In ci- vi-|ta- te De- i|no\- *||stri.|||
 z2 G,4 G,2 | G,2 G,4 E,2 | F,8 | C,2 C4 C2 | B,3 A, B,2 G,2 | A,8 | G,8 | z2 D4 D2 | %27
w: Quo- ni-|am hic est|De-|us, De- us|no- ster in ae-|ter-|num,|De- us|
 C3 B, C2 A,2 | (B,3 A, B,2 G,2 | A,8 | G,2 G,4 A,2 | B,2 CC C2 B,2 | C4 z4 | z8 || %34
w: no- ster in ae-|ter\- * * *||num, et in|sae- cu- lum sae- cu-|li:||
[M:3/2] z4 F,4 F,4 | G,8 A,4 | D,8 E,4 | F,8 G,4 | C,12 | z12 | z12 | z12 | z4 E,4 E,4 | %43
w: i- pse|re- get|nos in|sae- cu-|la,||||i- pse|
[M:3/2] F,8 G,4 | C,8 z4 | z12 | z4 F,4 F,4 | G,8 A,4 | D,8 F,4 | G,8 A,4 | D,8 E,4 | F,8 G,4 || %52
w: re- get|nos,||i- pse|re- get|nos in|sae- cu-|la, in|sae- cu-|
[M:2/2] x8 |[M:2/2] C,2 C4 G,2 | A,6 G,2 | F,4 E,4 | F,4 C,4 | F,4) F,4 | C,16 |] %59
w: |la, i- pse|re- get|nos in|sae\- *|* cu-|la.|

